X: 32
T:Miss McLeod's
M:C
L:1/8
K:G
|:"G"GABc dBGA|B2 BA BcBA|GABc dBGA|"D" A2 AG AcBA|!
"G" GABc dBGA|B2 BA B^c d2|"C"efed (3B^cd ef|"D"gedB AcBA:|!
|:"G"G2 g2 d2g2|B2 BA BcBA|G2 g2 d2g2|"D" A2 AG AcBA|!
"G"G2 g2 d2g2|B2 BA BcBA|"C"e2 ef edef|"D" gedB AcBA:|!
